assets/Bathtub/Flat/bathtub_flat.svg

<svg width="32" height="32" viewBox="0 0 32 32" fill="none" xmlns="http://www.w3.org/2000/svg">
<path d="M17.25 6C17.25 3.58579 19.0858 1.75 21.5 1.75C23.9142 1.75 25.75 3.58579 25.75 6V15.4996L24.25 15.4999V6C24.25 4.41421 23.0858 3.25 21.5 3.25C19.9142 3.25 18.75 4.41421 18.75 6V7.24942L17.25 7.25V6Z" fill="#998EA4"/>
<path d="M11.5303 27.5303L9.03033 30.0303C8.73744 30.3232 8.26256 30.3232 7.96967 30.0303C7.67678 29.7374 7.67678 29.2626 7.96967 28.9697L10.4697 26.4697L11.5303 27.5303Z" fill="#998EA4"/>
<path d="M22.9697 30.0303L20.4697 27.5303L21.5303 26.4697L24.0303 28.9697C24.3232 29.2626 24.3232 29.7374 24.0303 30.0303C23.7374 30.3232 23.2626 30.3232 22.9697 30.0303Z" fill="#998EA4"/>
<path d="M15.5002 8.5C15.5002 8.5 15.5001 6 18.0001 6C20.5001 6 20.5002 8.5 20.5002 8.5C20.5403 8.67 20.5002 9 20.0002 9H16.0002C15.5002 9 15.4553 8.6689 15.5002 8.5Z" fill="#998EA4"/>
<path d="M10.0003 11C7.50025 11 5.50029 13.5 6.50029 15.5L15.0002 16.5L23.5003 15.5C23.5002 15 22.5002 13 20.0003 13C19.0003 13 18.5002 13.5 17.5003 13.5C16.5003 13.5 16.5002 12.5 15.5003 12.5C14.5003 12.5 14.5002 13 13.5003 13C12.5003 13 12.5002 11 10.0003 11Z" fill="#26EAFC"/>
<path d="M19 28H13C4 28 3 17 3 16.5H29C29 17 28 28 19 28Z" fill="#B4ACBC"/>
<path d="M2 16.5C2 15.9477 2.44772 15.5 3 15.5H29C29.5523 15.5 30 15.9477 30 16.5C30 17.0523 29.5523 17.5 29 17.5H3C2.44772 17.5 2 17.0523 2 16.5Z" fill="#CDC4D6"/>
</svg>

<svg xmlns="http://www.w3.org/2000/svg" width="32" height="32" fill="none"><path fill="#998EA4" d="M17.25 6c0-2.414 1.836-4.25 4.25-4.25 2.414 0 4.25 1.836 4.25 4.25v9.5h-1.5V6c0-1.586-1.164-2.75-2.75-2.75S18.75 4.414 18.75 6v1.25h-1.5V6ZM11.53 27.53l-2.5 2.5a.75.75 0 0 1-1.06-1.06l2.5-2.5 1.06 1.06ZM22.97 30.03l-2.5-2.5 1.06-1.06 2.5 2.5a.75.75 0 1 1-1.06 1.06Z"/><path fill="#998EA4" d="M15.5 8.5S15.5 6 18 6s2.5 2.5 2.5 2.5c.04.17 0 .5-.5.5h-4c-.5 0-.545-.331-.5-.5Z"/><path fill="#26EAFC" d="M10 11c-2.5 0-4.5 2.5-3.5 4.5l8.5 1 8.5-1c0-.5-1-2.5-3.5-2.5-1 0-1.5.5-2.5.5s-1-1-2-1-1 .5-2 .5-1-2-3.5-2Z"/><path fill="#B4ACBC" d="M19 28h-6C4 28 3 17 3 16.5h26C29 17 28 28 19 28Z"/><path fill="#CDC4D6" d="M2 16.5a1 1 0 0 1 1-1h26a1 1 0 1 1 0 2H3a1 1 0 0 1-1-1Z"/></svg>
